X:129
T:Micky O'Callaghan's Favorite (h'pipe) 
B:CRE1.214 (Rogha Mhici Ui Cheallachain)
F:file ID: cre.1/129micky_o
Q:150
M:4/4
R:hornpipe
L:1/8
K:D
fe|dBAB defe|dBAB defg|afbf afdf|(3efe ee egfe|
dBAB defe|dBAB defg|afbf afdf|(3efe dc d2:|
fa|b2bb bafa|a2ab afdf|g2g2 (3fgf ed|Beee egfe|
dBAB defe|dBAB defg|afbf afdf|(3efe dc d2:|

%%%

